svg/format_letter_spacing.svg

<svg xmlns="http://www.w3.org/2000/svg" viewBox="0 0 24 24"><path d="M14.4 10.7h4.1l-2-5.4zM15.6 3h1.7L22 15h-1.9l-1-2.6h-5.4l-1 2.6h-1.9zm-4.4 0h1.9L8.4 15H6.7L2 3h1.9l3.6 9.7M19 22v-2H5v2l-3-3 3-3v2h14v-2l3 3z"/></svg>

<svg xmlns="http://www.w3.org/2000/svg" id="mdi-format-letter-spacing" viewBox="0 0 24 24"><path d="M14.4 10.7H18.5L16.5 5.3L14.4 10.7M15.6 3H17.3L22 15H20.1L19.1 12.4H13.7L12.7 15H10.8L15.6 3M11.2 3H13.1L8.4 15H6.7L2 3H3.9L7.5 12.7M19 22V20H5V22L2 19L5 16V18H19V16L22 19L19 22Z" /></svg>
